X:1     %Music
T:The Mistress's Health
B:Broadwood, L, 1893, English County Songs, London, Leadenhall Press
S:John Burberry, gamekeeper, Sep 1892
Z:Lucy Broadwood
%!STAVE 0 'Melody' @
%!INSTR 'Piano 1' 0 0 @
M:6/8     %Meter
L:1/8     %
K:C
E/E/ |E2 B B2 A |G2 F E2 ^D |E2 F G2 A |F2 ^D B,3|
w:Here's a health un-to the mis-ter-ess, the fair--est of twen--ty: 
E3 E2 F |G3 F2 G |A3 A2 A | B3- B2 z |
w:O, is she so, is she so, is she so? *
E2 B B2 A |G3 G2 F |E2 F G2 A |F2 ^D B,3 |
w:Is your glass_ full_ or is your glass_ emp-_ty
E3 E2 F |G3 F2 G |A3 A2 A |B3 z   
w: Come, let us know, let us know, let us know;      
 B |: [M:C][L:1/8]c A A A d2 c B |A G F E F2            
w: We'll drink him out so deep and we'll sing our-selves to sleep, 
(3:2G A/ z |[M:6/8][L:1/8] B3 c2 A | B2 A G2 F |[1E6- |E3 z B  :|[2E6-E3 |] 
w:And sing ho and sing ho,_ and sing ho! * We'll ho!